symbols/web/feed/materialsymbolssharp/feed_fill1_40px.svg

<svg xmlns="http://www.w3.org/2000/svg" height="40" width="40"><path d="M5 35V5h21.708L35 13.292V35Zm6.625-6.958h16.75V25.25h-16.75Zm0-13.292H20v-2.792h-8.375Zm0 6.625h16.75v-2.75h-16.75ZM25.25 14.75h6.958L25.25 7.792Z"/></svg>

<svg xmlns="http://www.w3.org/2000/svg" height="40" width="40"><path d="M5 35V5H26.708L35 13.292V35ZM11.625 28.042H28.375V25.25H11.625ZM11.625 14.75H20V11.958H11.625ZM11.625 21.375H28.375V18.625H11.625ZM25.25 14.75H32.208L25.25 7.792Z"/></svg>
